src/main/resources/icons/BVCoreIcons/resources/icons/libValidator.svg

<svg xmlns="http://www.w3.org/2000/svg" width="16" height="16" viewBox="0 0 16 16">
  <g fill="none" fill-rule="evenodd">
    <path fill="#935E2D" fill-opacity=".7" d="M15.1939057,9.00138518 L14.1944636,9.00138518 L14.1944636,7.00138518 L10.1944636,7.00138518 L10.1944636,8.93742376 L7.86236207,6.60532218 L7.86117029,6.60651395 L3.56768466,2.31344463 C6.36968466,0.0574446345 9.96168466,0.862444634 12.6466847,3.54844463 C14.2593722,5.1611322 15.1940577,7.10162909 15.1939057,9.00138518 Z M6.79996213,7.66772211 L3.9812064,10.4864778 L1.24180919,7.74708064 C1.05098214,6.23299269 1.42990782,4.71406641 2.50768466,3.37544463 L6.79996213,7.66772211 Z"/>
    <rect width="2" height="6" x="14.194" y="10" fill="#40B6E0"/>
    <rect width="2" height="8" x="11.194" y="8" fill="#9AA7B0"/>
    <polygon fill="#62B543" points="10.194 12 10.194 15.912 8.194 15.912 8.194 14.006"/>
    <polygon fill="#62B543" points="7.558 15.391 7.558 6.962 5.259 6.962 5.259 13.092 2.194 13.092 2.194 15.391" transform="rotate(45 4.876 11.176)"/>
  </g>
</svg>

<svg xmlns="http://www.w3.org/2000/svg" width="16" height="16" viewBox="0 0 16 16"><rect id="frame" width="16" height="16" fill="none"/><g fill="none" fill-rule="evenodd"><path fill="#935E2D" fill-opacity=".7" d="M15.194 9.001h-1v-2h-4v1.936L7.862 6.605v.002L3.567 2.313C6.37.057 9.962.863 12.647 3.548c1.612 1.613 2.547 3.554 2.547 5.453zM6.8 7.668l-2.819 2.818-2.74-2.739c-.19-1.514.189-3.033 1.267-4.372L6.8 7.668z"/><path fill="#40B6E0" d="M14.194 10h2v6h-2z"/><path fill="#9AA7B0" d="M11.194 8h2v8h-2z"/><path fill="#62B543" d="M10.194 12v3.912h-2v-1.906z"/><path fill="#62B543" d="M3.792 16.053l5.96-5.96-1.625-1.626-4.335 4.335-2.167-2.168-1.626 1.626z"/></g></svg>
